X:1
T:Title
%%score { ( 1 3 ) | 2 }
L:1/8
Q:1/4=100
M:6/8
K:Eb
V:1 treble nm="Grand Piano"
V:3 treble 
V:2 bass 
V:1
 [GB]2 [GB] [Ac]2 [GB] | [EGB]3 [FA]3 | [FA]2 [EG] [DB]2 [DF] | [EG]6 | [GB]2 [GB] [Ac]2 [GB] | %5
w: W.~A.~Cornell * * *|||||
 [EGB]3 [FA]3 | [FA]2 [EG] [GB]2 [FA] | G6 | B2 G A2 [Ac] | [GB]3 [Ge]3 | d2 c B2 =A | [DFB]6 | %12
w: |||||||
 [Ge]2 [Ad] e2 c | B3 G3 | [GB]2 [FA] [EG]2 [DF] | E6 | [GB]2 [GB] [Ge]2 [GB] | [Ac]6 | %18
w: ||||||
 [EAc]2 [Ece] [EBd]2 [EAc] | [GB]6 | [Ge]2 [GB] G2 E |[M:15/16] [EA]->[EA][EB] [Ec]3 [EAc]3/2 | %22
w: ||||
[M:3/4] [EGB]2 [B,EG] [A,DF]2 [B,DG] | [G,E]6 |] %24
w: ||
V:2
 [E,E]2 [E,E] [E,E]2 [E,E] | B,,3 [B,,B,]3 | [B,,B,]2 [B,,B,] [B,,F,]2 [B,,B,] | [E,B,]6 | %4
 [E,E]2 [E,E] [E,E]2 [E,E] | B,,3 [B,,B,]3 | [B,,B,]2 [B,,B,] [B,,B,]2 [B,,B,] | [E,B,E]6 | %8
 [E,G,E]2 [E,B,E] [E,CE]2 [E,E] | [E,E]3 [E,B,]3 | [F,B,F]2 [F,EF] [F,DF]2 [F,CF] | B,,6 | %12
 [E,B,]2 [F,B,][K:treble] [G,B,G]2 [A,E] | [G,E]3 [E,B,E]3 | [B,,B,]2 [B,,B,] [B,,B,]2 [B,,A,] | %15
 [E,G,]6 | [E,E]2 [E,E] [E,B,]2 [E,E] | [A,E]2 A, .A,3 | A,2 A, A,2 A, | E,2 E, .E,3 | %20
 [E,B,]2 [E,B,] [E,B,E]2 [E,G,] |[M:15/16] [C,A,]->[C,A,][B,,G,] [A,,A,]3 A,,3/2 | %22
[M:3/4] B,,2 B,, B,,2 B,, | E,6 |] %24
V:3
 x6 | x6 | x6 | x6 | x6 | x6 | x6 | x6 | x6 | x6 | x6 | x6 | x6 | x6 | x6 | x6 | x6 | z2 E .E3 | %18
 x6 | E2 E .E3 | x6 |[M:15/16] x15/2 |[M:3/4] x6 | x6 |] %24

